!!!XEN: Song referring to an historical incident
!!!AGN: Unclassified social song
!!!COM: Anonymous
!!!CNT: Native American -- Ojibway
!!!TXO: Ojibway
!!!MLC: Red Lake reservation, northern Minnesota, U.S.A.
!!!MRD: 1907-1909///
!!!MPN: Gi'wita'bines ("Spotted bird")
**kern
*MM120
*Imale
*k[b-e-a-d-g-c-]
*clefG2
*M3/4
16b-
=1
16b-
8.a-
8.g-
16b-
16b-
8.g-
=2
2g-
8.g-
16e-
=3
*M4/4
4g-
4g-
4g-
8.g-
16b-
=4
*M3/4
12b-
12a-
12a-
12a-
12g-
12g-
12g-
12e-
12e-
=5
2d-
8.d-
16b-
=6
*M4/4
4d-
4d-
4d-
8.d-
16g-
=7
*M3/4
4g-
8.d-
16e-
8.d-
16d-
=8
2B-
8.B-
16A-
=9
2G-
*clefF4
8.G-
16E-
=10
[2G-
8.G-]
16B-
=11
*M4/4
8.B-
16A-
8.G-
16B-
8.G-
16E-
8.G-
16E-
=12
*M3/4
8.D-
16D-
2D-
=13
2D-
4D-
==
*-
!!!OCL: Frances Densmore
!!!YOR: Chippewa [i.e., Ojibway] Music, Bulletin 45 of the Bureau of American Ethnology, Smitsonian Institution
!!!ONM: 186
!!!PPG: 198
!!!PUB: published
!!!PPR: Government Printing Office
!!!PPP: Washington, D.C.
!!!PDT: 1909///
!!!EST: missing clef changes, text, drum tempo, and drum part
!!!YEC: Copyright 1998 Paul von Hippel
!!!YEM: Rights to all derivate electronic formats reserved.
!!!EFL: 21/42
